X:1
T:Lullaby (Geibel), 11.11.11.12
T:Adam Geibel (1855-1933)
T:Lullaby (Geibel), 11.11.11.12
T:Public Domain
T:Public Domain
C:Adam Geibel (1855-1933)
Z:Public Domain
%%score ( 1 2 ) 3 ( 4 5 )
L:1/8
M:6/8
K:G
V:1 treble 
V:2 treble 
V:3 treble 
V:4 bass 
V:5 bass 
V:1
 [DB]2 [DB] [DB]2 [DB] | [DA]3 [DG]3 | [Bd]2 [Bd] [Bd]2 [Bd] | B6 | [^Ge]2 [Ge] [Ge]2 [Gd] | %5
 [Ad]3 [Ac]3 | [GB]2 [GA] [GA]2 E | A6 | B2 B A>Bc | B3 d2 D | B2 B A>Bc | B3 d3 | G2 G G>Bd | %13
 e3 A2 B | d2 c B2 A | G3 ||"^Refrain" A>Bc | B3 A>Bc | d3 G3 | G3 G3 | d6 |] %21
V:2
 x6 | x6 | x6 | x6 | x6 | x6 | x6 | x6 | x6 | x6 | x6 | x6 | x6 | x6 | x6 | G3 || x3 | x6 | x6 | %19
 x6 | x6 |] %21
V:3
 B,2 B, C2 C | B,3 B,3 | D2 D D2 D | [DG]3 [DG]3 | E2 E E2 E | E3 E3 | ^C2 C C2 C | %7
 [CF]2 [CE] [B,D]3 | D3 F3 | G3 F2 D | D3 F3 | G3 G3 | =F2 F F2 F | E3 E2 E | E2 E F2 F | z3 || %16
 F2 F | G3 F2 F | D3 =F3 | E3 _E3 | D6 |] %21
V:4
 G,,2 D, F,2 D, | G,,2 D, G,2 D, | D,,2 D, [F,C]2 D, | G,,2 D, [G,B,]2 D, | E,,2 E, [B,D]2 E, | %5
 A,,2 E, [A,C]2 F, | A,,2 E, A,2 E, | [D,,D,]2 [D,G,] [D,F,]3 | [G,,G,]3 C2 A, | [G,B,]3 [D,A,]3 | %10
 [G,,G,]3 C2 A, | [G,B,]3 [G,B,]2 [G,B,] | [G,B,]2 [G,B,] [G,B,]2 [G,,G,] | %13
 [C,G,]3 [C,A,]2 [B,,^G,] | [A,,A,]2 [C,A,] [D,D]2 [D,C] | [G,B,]3 || [D,C]2 [D,A,] | %17
 [G,B,]3 [D,C]2 [D,A,] | [B,,G,]3 [B,,D]3 | [C,C]3 [C,A,]3 | [G,,B,]6 |] %21
V:5
 x6 | x6 | x6 | x6 | x6 | x6 | x6 | x6 | x3 D,3 | x6 | x3 D,3 | x6 | x6 | x6 | x6 | x3 || x3 | x6 | %18
 x6 | x6 | x6 |] %21

